X: 20615
T: John Pellerine's
R: strathspey
M: 4/4
K: Dmajor
a<b a>f e>d e<f|d>e f<d e>d B<d|a<b a>f e>d e<f|d<B A>F E2 E2|
a<b a>f e>d e<f|d2 (3def e>d B>f|a<b f<a e<f d>e|B<d A>F E2 E>e||
d<B A>G F>E F<D|A>G F<D F2 F>e|d<B A>G F>E F<D|G<B A>F E2 E2|
d<B A>G F>E F<D|A>G F<D F2 F>e|d<B c>B B>A A<F|G<B A>F E2 E2||

